X:1
T:Title
%%score { ( 1 2 ) | ( 3 4 ) }
L:1/8
M:4/4
K:Db
V:1 treble nm="Grand Piano"
V:2 treble 
V:3 bass 
V:4 bass 
V:1
 z4 z2[Q:1/4=100] z E | F2 [FA]2 [FA]2 F2 | G2 B2 B4 | [FA][GB][FA][EG] [DF]4 | %4
[M:9/8] [EG][FA][EG] [DF] [CE]2- [CE][DF][EG] |[M:4/4] [FA]2 [Fd]2 [Fd]2 [FA]2 | B2 d2 d4 | %7
 ABAG F2 [CE]2 | D6 z2 | [FA][_F=G][=FA][_GB] [FA]2 [Dd]2 | d2- [Gd-]2 [Fd]2 z2 | %11
 [FA][_F=G][=FA][_GB] [FA]2 [DF]2 | z4 z G,FG | [FA]2 [Fd]2 [Fd]2 [FA]2 |[M:5/4] B2 d2 d6 | %15
[M:4/4] ABAG F2 [CE]2 |[M:3/4] D6 |] %17
V:2
 z4 z2 D2 | x8 | x8 | x8 |[M:9/8] x9 |[M:4/4] x8 | x8 | x8 | x8 | x8 | F2 z2 z4 | x8 | [CE]6 z2 | %13
 x8 |[M:5/4] x10 |[M:4/4] x8 |[M:3/4] z2 B,2 A,2 |] %17
V:3
 z4 z2 F,G, | [D,A,D]2 [D,D]2 [D,D]2 [D,A,D]2 | [G,B,D]2 [G,DG]2 [G,DG]4 | %3
 [D,D][D,D][D,A,][D,A,] [D,A,]4 |[M:9/8] [A,,A,][A,,A,][A,,A,] [A,,A,] [A,,A,]2- [A,,A,] [D,A,]2 | %5
[M:4/4] [D,D]2 [D,A,]2 [D,A,]2 [D,D]2 | [G,DG]2 [G,B,G]2 [G,B,G]4 | %7
 [A,DF][A,DG][A,F][K:bass][A,E] [A,D]2 [A,,G,]2 | [D,F,]6 z2 | %9
 [D,D][D,D][D,D][D,D] [D,D]2 [F,A,]2 | [D,A,]2 [G,B,]2 [D,A,]2 z2 | %11
 [D,D][D,D][D,D][D,D] [D,D]2 [D,A,]2 | z4 z2 A,2 | [D,D]2 [D,A,]2 [D,A,]2 [D,D]2 | %14
[M:5/4][K:treble] [G,DG]2 [G,B,G]2 [G,B,G]6 | %15
[M:4/4] [A,DF][A,DG][A,F][K:bass][A,E] [A,D]2 [A,,G,]2 |[M:3/4] F,2 z2 z2 |] %17
V:4
 z4 z2 D,2 | x8 | x8 | x8 |[M:9/8] x9 |[M:4/4] x8 | x8 | x3[K:bass] x5 | x8 | x8 | x8 | x8 | %12
 [A,,A,]2 A,2 A,2 [F,D][E,E] | x8 |[M:5/4][K:treble] x10 |[M:4/4] x3[K:bass] x5 | %16
[M:3/4] D,2- [D,-G,]2 [D,F,]2 |] %17

